x-pack/platform/plugins/shared/content_connectors/public/assets/icons/slack.svg

<svg fill="none" height="100" viewBox="0 0 100 100" width="100" xmlns="http://www.w3.org/2000/svg"><path d="m21.0097 63.1921c0 5.7819-4.723 10.505-10.5048 10.505-5.78176 0-10.5049-4.7231-10.5049-10.505 0-5.7817 4.72314-10.5048 10.5049-10.5048h10.5048z" fill="#e01e5a"/><path d="m26.3029 63.1921c0-5.7817 4.7231-10.5048 10.505-10.5048 5.7817 0 10.5048 4.7231 10.5048 10.5048v26.303c0 5.7817-4.7231 10.5049-10.5048 10.5049-5.7819 0-10.505-4.7232-10.505-10.5049z" fill="#e01e5a"/><path d="m36.8079 21.0097c-5.7819 0-10.505-4.723-10.505-10.5048 0-5.78176 4.7231-10.5049 10.505-10.5049 5.7817 0 10.5048 4.72314 10.5048 10.5049v10.5048z" fill="#36c5f0"/><path d="m36.8079 26.303c5.7817 0 10.5048 4.723 10.5048 10.5048 0 5.7817-4.7231 10.5049-10.5048 10.5049h-26.303c-5.78176 0-10.5049-4.7232-10.5049-10.5049 0-5.7818 4.72314-10.5048 10.5049-10.5048z" fill="#36c5f0"/><path d="m78.9903 36.8078c0-5.7818 4.7231-10.5048 10.5049-10.5048 5.7817 0 10.5048 4.723 10.5048 10.5048 0 5.7817-4.7231 10.5049-10.5048 10.5049h-10.5049z" fill="#2eb67d"/><path d="m73.6971 36.8079c0 5.7817-4.7231 10.5048-10.5048 10.5048-5.7819 0-10.505-4.7231-10.505-10.5048v-26.303c0-5.78176 4.7231-10.5049 10.505-10.5049 5.7817 0 10.5048 4.72314 10.5048 10.5049z" fill="#2eb67d"/><g fill="#ecb22e"><path d="m63.1923 78.9902c5.7817 0 10.5048 4.7232 10.5048 10.5049s-4.7231 10.5048-10.5048 10.5048c-5.7819 0-10.505-4.7231-10.505-10.5048v-10.5049z"/><path d="m63.1923 73.6971c-5.7819 0-10.505-4.7231-10.505-10.505 0-5.7817 4.7231-10.5048 10.505-10.5048h26.3028c5.7817 0 10.5049 4.7231 10.5049 10.5048 0 5.7819-4.7232 10.505-10.5049 10.505z"/></g></svg>

<svg xmlns="http://www.w3.org/2000/svg" width="100" height="100" fill="none"><path fill="#e01e5a" d="M21.01 63.192c0 5.782-4.723 10.505-10.505 10.505S0 68.974 0 63.192s4.723-10.505 10.505-10.505H21.01zM26.303 63.192c0-5.782 4.723-10.505 10.505-10.505s10.505 4.723 10.505 10.505v26.303c0 5.782-4.723 10.505-10.505 10.505s-10.505-4.723-10.505-10.505z"/><path fill="#36c5f0" d="M36.808 21.01c-5.782 0-10.505-4.723-10.505-10.505S31.026 0 36.808 0s10.505 4.723 10.505 10.505V21.01zM36.808 26.303c5.782 0 10.505 4.723 10.505 10.505S42.59 47.313 36.808 47.313H10.505C4.723 47.313 0 42.589 0 36.808s4.723-10.505 10.505-10.505z"/><path fill="#2eb67d" d="M78.99 36.808c0-5.782 4.723-10.505 10.505-10.505S100 31.026 100 36.808s-4.723 10.505-10.505 10.505H78.99zM73.697 36.808c0 5.782-4.723 10.505-10.505 10.505S52.687 42.59 52.687 36.808V10.505C52.687 4.723 57.41 0 63.192 0s10.505 4.723 10.505 10.505z"/><g fill="#ecb22e"><path d="M63.192 78.99c5.782 0 10.505 4.723 10.505 10.505S68.974 100 63.192 100s-10.505-4.723-10.505-10.505V78.99zM63.192 73.697c-5.782 0-10.505-4.723-10.505-10.505s4.723-10.505 10.505-10.505h26.303c5.782 0 10.505 4.723 10.505 10.505s-4.723 10.505-10.505 10.505z"/></g></svg>
